!!!Genre:	Freylekhs
!!!Mode:	Major
!!!Listening/dance:	dance
!!!:	*g:dor
!!!One_Mode:	no
**kern
*I"P1
*clefG2
*k[f#]
*g:dor
*>B
(16cc#XLL
16eeJJ
=9
4.dd)
(16cc#XLL
16eeJJ
=10
4.dd)
(16cc#XLL
16eeJJ
=11
8ddL)
(16cc#XL
16eeJJ
8ddL)
(16cc#L
16eeJJ
=12
8ddL)
(16cc#XL
16eeJJ
4dd)
=13!|:
8cc#XL
8dd
8ee
(8qgg/
8ffJ)
=14
4.dd
8dd
=15
8cc#XL
8dd
8ee
(8qgg/
8ffJ)
=16
4dd
8r
24ddLL
24ee
24ddJJ
=17
8cc#XL
8dd
8ee
8ffJ
=18
24ggLL
24aa
24ggJ
8ffJ
24eeLL
24ff
24eeJ
8ddJ
=19
24eeLL
24ff
24eeJ
8ddJ
24cc#XLL
24dd
24cc#J
8b-J
=20
24cc#XLL
24dd
24cc#J
8b-J
24aLL
24b-
24aJ
8gJ
=21
(16b-LL
16a
16ccn
(16b-JJ)
16aLL)
16g
16a
16b-JJ
=22
4g
8r
8d
=23
(8qcc#/
2dd)
=24
(8qff#X/
2gg)
=25
8ddL
8gg
8dd
8ggJ
=26
4dd
8r
24ddLL
24ee
24ddJJ
=27:|!
4.g
*>eM
==
*-
